X: 0029
T: Schottis Rheinl\"ander efter Olmorts (Spok) Erik
O: efter Ingvar Norman
%R: shottish
B: Paul B\"ackstr\"om's "L\aatar fr\aan Dalarna" collection" 1974
Z: 2022 John Chambers <jc:trillian.mit.edu>
M: 2/4
L: 1/16
K: D
%%slurgraces 1
%%graceslurs 1
% - - - - - - - - - -
|:!segno!\
[A2D2]f2 [A2D2]f2 | {D}g2(f/g/f/e/) [f4A4] |\
{ga}b2a>a a2A2 | g2f2 {g}Tf2e>f ||\
[A2D2]f2 [A2D2]f2 | {D}g2(f/g/f/e/) [f4A4] |
{f}aaaa {a}g2(3(ege) | d2(3(edc) d4 !coda!::[K:=c][K:G]\
d>bba (ag)(gf) | (fe){f}ed e4 |\
(d>f)(fe) (ed)dc | (cB){c}BA B4 ||
{B}d>bba (ag)(gf) | (fe){f}ed e4 |\
d2Tfe d2ba | g2(3(agf) g4 !segno!:|y!coda!|:\
d2(ce) d2(ce) | d2[A2F2] [A4F4] |
d2(ce) d2(ce) | d2[B2G2] [B4G4] ||\
{B}d>cBc d2(b>a) | g>a(3(gfg) e4 |\
d2(fe) d2ba | g2(3(agf) [g4B4] :|
% - - - - - - - - - -
N: This tune was labelled "29a", but most ABC software ignores that 'a'.
%%text Upptecknad och bearbetad av Ingvar Norman

%%sep 2 1 500
%%sep 1 1 500

